gg-mono/apps/dashboard/src/assets/astro-logo-light.svg

<svg fill="none" height="79" viewBox="0 0 301 79" width="301" xmlns="http://www.w3.org/2000/svg"><g fill="#fff"><path d="m20.7866 66.8455c-3.5543-3.241-4.5919-10.0507-3.1111-14.9842 2.5677 3.1105 6.1254 4.0958 9.8105 4.652 5.6889.8583 11.276.5373 16.5608-2.0565.6045-.297 1.1632-.6918 1.8238-1.0917.4959 1.435.625 2.8838.4518 4.3584-.4212 3.5911-2.2128 6.3651-5.0624 8.4679-1.1394.8412-2.3452 1.593-3.522 2.3861-3.6155 2.4376-4.5936 5.2957-3.2351 9.4533.0323.1012.0612.2025.1342.4497-1.8459-.824-3.1943-2.0238-4.2217-3.6014-1.0852-1.6651-1.6014-3.507-1.6286-5.5-.0136-.9698-.0136-1.9483-.1443-2.9044-.3193-2.3312-1.4163-3.3748-3.483-3.4349-2.1211-.0618-3.7989 1.2462-4.2438 3.3061-.034.1579-.0832.3142-.1325.4978z"/><path d="m.5 51.0393s10.5249-5.1144 21.0793-5.1144l7.9576-24.5661c.2979-1.188 1.1678-1.9954 2.1498-1.9954.9821 0 1.8519.8074 2.1499 1.9954l7.9576 24.5661c12.5 0 21.0792 5.1144 21.0792 5.1144s-17.8774-48.58048-17.9124-48.67795c-.5131-1.436305-1.3793-2.36135-2.5471-2.36135h-21.4526c-1.1678 0-1.999.925045-2.5471 2.36135-.0386.09563-17.9142 48.67795-17.9142 48.67795z"/><path d="m111.467 43.9652c0 4.3048-5.368 6.8758-12.8003 6.8758-4.8371 0-6.5478-1.1958-6.5478-3.707 0-2.6307 2.1236-3.8863 6.9607-3.8863 4.3654 0 8.0814.0598 12.3874.5979zm.059-5.3213c-2.654-.5979-6.665-.9566-11.444-.9566-13.9209 0-20.4687 3.2884-20.4687 10.9415 0 7.952 4.4831 11.0012 14.8652 11.0012 8.7895 0 14.7475-2.2122 16.9295-7.653h.354c-.059 1.3153-.118 2.6307-.118 3.6471 0 2.8101.472 3.0493 2.773 3.0493h10.854c-.59-1.6741-.944-6.3975-.944-10.4632 0-4.3646.177-7.653.177-12.0774 0-9.0283-5.427-14.768-22.416-14.768-7.3146 0-15.455 1.2555-21.6489 3.109.5899 2.4514 1.4158 7.4139 1.8287 10.6425 5.368-2.5111 12.9776-3.5873 18.8762-3.5873 8.141 0 10.382 1.8534 10.382 5.6202z"/><path d="m141.308 46.4763c-1.475.1794-3.48.1794-5.545.1794-2.183 0-4.188-.0598-5.545-.2392 0 .4784-.059 1.0165-.059 1.4948 0 7.4737 4.896 11.8383 22.121 11.8383 16.222 0 21.472-4.3048 21.472-11.8981 0-7.1747-3.48-10.7023-18.877-11.4796-11.974-.5381-13.036-1.8535-13.036-3.3482 0-1.7339 1.534-2.6307 9.556-2.6307 8.318 0 10.559 1.136 10.559 3.5275v.5381c1.18-.0597 3.304-.1195 5.486-.1195 2.065 0 4.306.0598 5.604.1793 0-.5381.059-1.0164.059-1.4349 0-8.7891-7.315-11.659-21.472-11.659-15.927 0-21.295 3.8864-21.295 11.4796 0 6.816 4.306 11.0611 19.584 11.7188 11.267.3587 12.506 1.6143 12.506 3.3482 0 1.8534-1.829 2.6905-9.733 2.6905-9.084 0-11.385-1.2556-11.385-3.8265z"/><path d="m193.222 14.9673c-4.306 4.0059-12.034 8.0118-16.34 9.088.059 2.2122.059 6.2779.059 8.4901l3.952.0598c-.059 4.245-.118 9.3869-.118 12.7949 0 7.952 4.188 13.931 17.225 13.931 5.486 0 9.143-.5979 13.685-1.5546-.472-2.9296-1.002-7.4139-1.179-10.8219-2.714.8969-6.135 1.3752-9.911 1.3752-5.25 0-7.373-1.4349-7.373-5.5604 0-3.5874 0-6.9356.059-10.0446 6.725.0597 13.449.1793 17.402.2989-.059-3.109.059-7.5933.236-10.5827-5.722.1195-12.152.1793-17.461.1793.059-2.6307.118-5.1419.177-7.653z"/><path d="m228.454 30.7517c.059-3.1091.118-5.7398.177-8.3107h-11.857c.177 5.1419.177 10.4033.177 18.1162 0 7.7128-.059 13.0341-.177 18.1162h13.567c-.236-3.5874-.295-9.6261-.295-14.768 0-8.1314 3.304-10.4632 10.795-10.4632 3.481 0 5.958.4186 8.141 1.1958.059-3.0492.649-8.9684 1.003-11.5991-2.242-.6577-4.72-1.0762-7.728-1.0762-6.43-.0598-11.149 2.5709-13.332 8.8488z"/><path d="m287.518 40.318c0 6.5171-4.719 9.5663-12.152 9.5663-7.374 0-12.093-2.8699-12.093-9.5663s4.778-9.2076 12.093-9.2076c7.374 0 12.152 2.6906 12.152 9.2076zm12.328-.2989c0-12.9743-10.146-18.7739-24.48-18.7739-14.393 0-24.186 5.7996-24.186 18.7739 0 12.9145 9.144 19.8501 24.127 19.8501 15.101 0 24.539-6.9356 24.539-19.8501z"/></g></svg>

<svg width="301" height="79" viewBox="0 0 301 79" fill="none" xmlns="http://www.w3.org/2000/svg">
<path d="M20.7866 66.8455C17.2323 63.6045 16.1947 56.7948 17.6755 51.8613C20.2432 54.9718 23.8009 55.9571 27.486 56.5133C33.1749 57.3716 38.762 57.0506 44.0468 54.4568C44.6513 54.1598 45.21 53.765 45.8706 53.3651C46.3665 54.8001 46.4956 56.2489 46.3224 57.7235C45.9012 61.3146 44.1096 64.0886 41.26 66.1914C40.1206 67.0326 38.9148 67.7844 37.738 68.5775C34.1225 71.0151 33.1444 73.8732 34.5029 78.0308C34.5352 78.132 34.5641 78.2333 34.6371 78.4805C32.7912 77.6565 31.4428 76.4567 30.4154 74.8791C29.3302 73.214 28.814 71.3721 28.7868 69.3791C28.7732 68.4093 28.7732 67.4308 28.6425 66.4747C28.3232 64.1435 27.2262 63.0999 25.1595 63.0398C23.0384 62.978 21.3606 64.286 20.9157 66.3459C20.8817 66.5038 20.8325 66.6601 20.7832 66.8437L20.7866 66.8455Z" fill="white"/>
<path d="M0.5 51.0393C0.5 51.0393 11.0249 45.9249 21.5793 45.9249L29.5369 21.3588C29.8348 20.1708 30.7047 19.3634 31.6867 19.3634C32.6688 19.3634 33.5386 20.1708 33.8366 21.3588L41.7942 45.9249C54.2942 45.9249 62.8734 51.0393 62.8734 51.0393C62.8734 51.0393 44.996 2.45882 44.961 2.36135C44.4479 0.925045 43.5817 0 42.4139 0H20.9613C19.7935 0 18.9623 0.925045 18.4142 2.36135C18.3756 2.45698 0.5 51.0393 0.5 51.0393Z" fill="white"/>
<path d="M111.467 43.9652C111.467 48.27 106.099 50.841 98.6667 50.841C93.8296 50.841 92.1189 49.6452 92.1189 47.134C92.1189 44.5033 94.2425 43.2477 99.0796 43.2477C103.445 43.2477 107.161 43.3075 111.467 43.8456V43.9652ZM111.526 38.6439C108.872 38.046 104.861 37.6873 100.082 37.6873C86.1611 37.6873 79.6133 40.9757 79.6133 48.6288C79.6133 56.5808 84.0964 59.63 94.4785 59.63C103.268 59.63 109.226 57.4178 111.408 51.977H111.762C111.703 53.2923 111.644 54.6077 111.644 55.6241C111.644 58.4342 112.116 58.6734 114.417 58.6734H125.271C124.681 56.9993 124.327 52.2759 124.327 48.2102C124.327 43.8456 124.504 40.5572 124.504 36.1328C124.504 27.1045 119.077 21.3648 102.088 21.3648C94.7734 21.3648 86.633 22.6203 80.4391 24.4738C81.029 26.9252 81.8549 31.8877 82.2678 35.1163C87.6358 32.6052 95.2454 31.529 101.144 31.529C109.285 31.529 111.526 33.3824 111.526 37.1492V38.6439Z" fill="white"/>
<path d="M141.308 46.4763C139.833 46.6557 137.828 46.6557 135.763 46.6557C133.58 46.6557 131.575 46.5959 130.218 46.4165C130.218 46.8949 130.159 47.433 130.159 47.9113C130.159 55.385 135.055 59.7496 152.28 59.7496C168.502 59.7496 173.752 55.4448 173.752 47.8515C173.752 40.6768 170.272 37.1492 154.875 36.3719C142.901 35.8338 141.839 34.5184 141.839 33.0237C141.839 31.2898 143.373 30.393 151.395 30.393C159.713 30.393 161.954 31.529 161.954 33.9205V34.4586C163.134 34.3989 165.258 34.3391 167.44 34.3391C169.505 34.3391 171.746 34.3989 173.044 34.5184C173.044 33.9803 173.103 33.502 173.103 33.0835C173.103 24.2944 165.788 21.4245 151.631 21.4245C135.704 21.4245 130.336 25.3109 130.336 32.9041C130.336 39.7201 134.642 43.9652 149.92 44.6229C161.187 44.9816 162.426 46.2372 162.426 47.9711C162.426 49.8245 160.597 50.6616 152.693 50.6616C143.609 50.6616 141.308 49.406 141.308 46.8351V46.4763Z" fill="white"/>
<path d="M193.222 14.9673C188.916 18.9732 181.188 22.9791 176.882 24.0553C176.941 26.2675 176.941 30.3332 176.941 32.5454L180.893 32.6052C180.834 36.8502 180.775 41.9921 180.775 45.4001C180.775 53.3521 184.963 59.3311 198 59.3311C203.486 59.3311 207.143 58.7332 211.685 57.7765C211.213 54.8469 210.683 50.3626 210.506 46.9546C207.792 47.8515 204.371 48.3298 200.595 48.3298C195.345 48.3298 193.222 46.8949 193.222 42.7694C193.222 39.182 193.222 35.8338 193.281 32.7248C200.006 32.7845 206.73 32.9041 210.683 33.0237C210.624 29.9147 210.742 25.4304 210.919 22.441C205.197 22.5605 198.767 22.6203 193.458 22.6203C193.517 19.9896 193.576 17.4784 193.635 14.9673H193.222Z" fill="white"/>
<path d="M228.454 30.7517C228.513 27.6426 228.572 25.0119 228.631 22.441H216.774C216.951 27.5829 216.951 32.8443 216.951 40.5572C216.951 48.27 216.892 53.5913 216.774 58.6734H230.341C230.105 55.086 230.046 49.0473 230.046 43.9054C230.046 35.774 233.35 33.4422 240.841 33.4422C244.322 33.4422 246.799 33.8608 248.982 34.638C249.041 31.5888 249.631 25.6696 249.985 23.0389C247.743 22.3812 245.265 21.9627 242.257 21.9627C235.827 21.9029 231.108 24.5336 228.925 30.8115L228.454 30.7517Z" fill="white"/>
<path d="M287.518 40.318C287.518 46.8351 282.799 49.8843 275.366 49.8843C267.992 49.8843 263.273 47.0144 263.273 40.318C263.273 33.6216 268.051 31.1104 275.366 31.1104C282.74 31.1104 287.518 33.801 287.518 40.318ZM299.846 40.0191C299.846 27.0448 289.7 21.2452 275.366 21.2452C260.973 21.2452 251.18 27.0448 251.18 40.0191C251.18 52.9336 260.324 59.8692 275.307 59.8692C290.408 59.8692 299.846 52.9336 299.846 40.0191Z" fill="white"/>
</svg>
